nextcloudappstore/core/static/assets/img/icons/detail/comment-question-white.svg

<svg width="20" height="20" fill="none" style="-webkit-print-color-adjust:exact" version="1.1" viewBox="0 0 20 20" xmlns="http://www.w3.org/2000/svg"><g rx="0" ry="0" fill="#000"><g class="fills"><path rx="0" ry="0" d="m3.333 1.667h13.334c0.92 0 1.666 0.746 1.666 1.666v10c0 0.921-0.746 1.667-1.666 1.667h-5.084l-3.083 3.092c-0.167 0.158-0.375 0.241-0.583 0.241h-0.417c-0.46 0-0.833-0.373-0.833-0.833v-2.5h-3.334c-0.92 0-1.666-0.746-1.666-1.667v-10c0-0.925 0.75-1.666 1.666-1.666zm6.825 2.916c-0.741 0-1.333 0.15-1.783 0.45-0.458 0.3-0.692 0.8-0.65 1.375h1.642c0-0.233 0.083-0.408 0.216-0.525 0.167-0.116 0.35-0.175 0.575-0.175 0.259 0 0.484 0.067 0.634 0.217 0.15 0.142 0.225 0.325 0.225 0.575 0 0.233-0.067 0.442-0.184 0.617-0.141 0.183-0.316 0.333-0.533 0.45-0.433 0.266-0.717 0.5-0.892 0.7-0.158 0.2-0.241 0.483-0.241 0.9h1.666c0-0.234 0.042-0.417 0.117-0.567 0.075-0.142 0.217-0.267 0.433-0.392 0.384-0.175 0.7-0.408 0.942-0.708 0.242-0.308 0.367-0.633 0.367-1 0-0.583-0.225-1.05-0.675-1.4-0.45-0.342-1.075-0.517-1.859-0.517zm-0.991 5.417v1.667h1.666v-1.667h-1.666z" fill="#fff"/></g></g></svg>

<svg xmlns:xlink="http://www.w3.org/1999/xlink" width="20" xmlns="http://www.w3.org/2000/svg" height="20" id="screenshot-db15cf86-6f9e-8025-8002-bbab9ed6fd49" viewBox="0 0 20 20" style="-webkit-print-color-adjust: exact;" fill="none" version="1.1"><g id="shape-db15cf86-6f9e-8025-8002-bbab9ed6fd49" rx="0" ry="0" style="fill: rgb(0, 0, 0);"><g id="shape-db15cf86-6f9e-8025-8002-bbab9ed6fd4b"><g class="fills" id="fills-db15cf86-6f9e-8025-8002-bbab9ed6fd4b"><path rx="0" ry="0" d="M3.333,1.667L16.667,1.667C17.587,1.667,18.333,2.413,18.333,3.333L18.333,13.333C18.333,14.254,17.587,15.000,16.667,15.000L11.583,15.000L8.500,18.092C8.333,18.250,8.125,18.333,7.917,18.333L7.917,18.333L7.500,18.333C7.040,18.333,6.667,17.960,6.667,17.500L6.667,15.000L3.333,15.000C2.413,15.000,1.667,14.254,1.667,13.333L1.667,3.333C1.667,2.408,2.417,1.667,3.333,1.667ZM10.158,4.583C9.417,4.583,8.825,4.733,8.375,5.033C7.917,5.333,7.683,5.833,7.725,6.408L9.367,6.408C9.367,6.175,9.450,6.000,9.583,5.883C9.750,5.767,9.933,5.708,10.158,5.708C10.417,5.708,10.642,5.775,10.792,5.925C10.942,6.067,11.017,6.250,11.017,6.500C11.017,6.733,10.950,6.942,10.833,7.117C10.692,7.300,10.517,7.450,10.300,7.567C9.867,7.833,9.583,8.067,9.408,8.267C9.250,8.467,9.167,8.750,9.167,9.167L10.833,9.167C10.833,8.933,10.875,8.750,10.950,8.600C11.025,8.458,11.167,8.333,11.383,8.208C11.767,8.033,12.083,7.800,12.325,7.500C12.567,7.192,12.692,6.867,12.692,6.500C12.692,5.917,12.467,5.450,12.017,5.100C11.567,4.758,10.942,4.583,10.158,4.583ZM9.167,10.000L9.167,11.667L10.833,11.667L10.833,10.000L9.167,10.000ZZ" style="fill: rgb(255, 255, 255); fill-opacity: 1;"/></g></g></g></svg>
